X: 101
T: No_2_Odjib'we's_First_War_Song.krn
%%abc-version 2.0
%%abcx-abcm2ps-target-version 5.9.1 (29 Sep 2008)
%%abc-creator hum2abc beta
%%abcx-conversion-date 2020/08/10 18:54:57
%%gracespace 0 6 6
%%humdrum-veritas 398082821
%%humdrum-veritas-data 2764488847
%%linebreak <none>
%%barnumbers 0
L: 1/8
M: 5/8
%%staves {1 2}
V: 1 clef=treble
V: 2 clef=bass
K: Bb
[V:1] [K:clef=treble][M:5/8]FFFF/D/F | 
[V:2] [K:clef=bass][M:5/8]G,,G,,G,,G,,G,, | 
[V:1] F2>C2C ||  
[V:2] G,,G,,G,,G,,G,, ||  
[V:1] [M:4/8]C>C E C | 
[V:2] [M:4/8]z4 | 
[V:1] B, B,B,2 ||  
[V:2] z4 ||  
[V:1] [M:5/8]B,3-B,2 | 
[V:2] [M:5/8](3:2:1z4 | 
[V:1] B,B,B,B,/C/C ||  
[V:2] (3:2:1z4 ||  
[V:1] [M:4/8]C4 | 
[V:2] [M:4/8]z4 | 
[V:1] E E C3/B,/[K:clef=bass] ||  
[V:2] z4 ||  
[V:1] [M:3/4]B,B, B,B,B,2 ||  
[V:2] [M:3/4]z6 ||  
[V:1] [M:5/8]B,3-B,2 | 
[V:2] [M:5/8](3:2:1z4 | 
[V:1] DDDC/B,/C ||  
[V:2] (3:2:1z4 ||  
[V:1] [M:3/4]B,4G,2 | 
[V:2] [M:3/4]z6 | 
[V:1] G,F, F,D, D,C, ||  
[V:2] z6 ||  
[V:1] [M:2/4]B,,B,,B,,2 | 
[V:2] [M:2/4]z4 | 
[V:1] B,,4 |]  
[V:2] z4 |]  


